X:4959
T:Paddy Rainey's Jig
O:england
M:C|
L:1/8
C:Jesse Smith
R:jig
K:E
~B3 EGB|ege ~f2B|def BdB|AcA (E~F2)|
GAB EGF|GBe g2f|edB AFB,|B,GF E G/2F/2E|
~B3 EGB|ege ~f2B|def BdB|AcA (E~F2)|
GAB EGB|Ace =g2f|edB AFB,|B,GF E G/2F/2E|
:BEE EGA|BEF =DEB,|F=GB ABA|(c~=d2) fdc|
(A~B2) GAB|FA=d (e~f2)|edB AFB,|B,GF E G/2F/2E:|


